X: 4284
T: SOHO
%R: reel
B: James Kerr "Merry Melodies" v.4 p.30 #284
Z: 2016 John Chambers <jc:trillian.mit.edu>
N: The "D.C." should perhaps be at the end of the 2nd strain, not the 1st. (Or omitted).
M: C|
L: 1/8
K: D
(FG) |\
A2d2 dedc | B2e2 efed |\
[1,3 cdcB ABAG | FGAB A2 :|\
[2,4 cdcB Agfe | d2f2"_D.C."d2 :|
|: (ed) |\
cdcB A2(ag) | fgfe d2(d'c') |\
[1,3 bagf gfed | cdBc A2 :|\
[2,4 bagf efga | f2d2d2 :|

%%sep 1 1 500
%%sep 1 1 500

